synths/sAMZN.svg

<svg width="480" height="480" viewBox="0 0 480 480" fill="none" xmlns="http://www.w3.org/2000/svg">
<mask id="mask0-711235" mask-type="alpha" maskUnits="userSpaceOnUse" x="0" y="0" width="480" height="480">
<circle cx="240" cy="240" r="240" fill="url(#paint0_linear-429844)"/>
</mask>
<g mask="url(#mask0-711235)">
<circle cx="240" cy="240" r="240" fill="#31D8A4"/>
<circle cx="240" cy="240" r="208" fill="white"/>
</g>
<circle cx="240" cy="240" r="184" fill="white"/>
<path d="M107.4 317.999C132.9 347.699 167.1 368.999 205.2 378.899C239.4 385.799 275.1 382.199 306.9 367.799C322.8 360.599 337.2 350.399 349.5 337.799C350.7 335.999 350.1 333.599 348.3 332.399C346.8 331.799 344.7 331.799 343.2 332.399C319.8 344.399 294.6 352.799 268.8 357.299C241.5 360.299 213.9 358.499 187.5 351.599C160.5 342.599 134.7 329.699 111.3 313.199C109.5 312.599 107.7 313.499 107.4 315.299C107.1 316.499 107.1 317.399 107.4 317.999Z" fill="#F39700"/>
<path d="M323.7 324.301C333.9 322.201 344.4 321.901 354.9 322.801H355.2C358.5 323.701 360.6 327.001 360 330.601C357.9 340.801 354.6 350.701 350.4 360.001C350.1 360.901 350.7 361.801 351.6 362.101C352.2 362.401 352.5 362.101 353.1 361.801C365.7 351.901 372.9 336.901 372.9 320.701C373.2 316.501 370.5 312.901 366.3 312.301C351 309.601 335.4 312.901 322.2 321.301C321.6 321.901 321.3 322.801 321.9 323.701C322.5 324.301 323.1 324.601 323.7 324.301Z" fill="#F39700"/>
<path d="M270.9 283.801C265.5 289.801 259.2 295.201 252.3 300.001C239.4 307.501 224.7 311.701 209.7 312.001C196.5 311.701 183.6 307.201 173.1 299.401C155.4 283.201 148.5 258.601 155.7 235.501C162.3 215.401 177.6 199.201 197.4 191.701C219 185.101 241.5 181.801 264.3 181.801V158.101C262.8 147.301 254.1 138.901 243.3 137.701C236.4 136.801 229.8 137.701 223.5 140.401C214.5 144.601 208.2 152.701 206.1 162.601C204.6 165.601 201.3 167.401 198 166.801L165.6 163.801C162.6 162.901 160.5 160.501 160.2 157.201C162.6 141.001 171 126.901 183.3 116.701C199.8 104.101 220.2 97.2006 241.2 97.5006C260.4 97.8006 279.3 103.801 295.2 115.201C308.4 126.301 315.6 142.801 314.7 159.901V241.801C315 248.701 316.8 255.601 319.8 261.601L330 276.301C331.2 278.701 331.2 281.101 330 283.501L300 309.001C297.3 310.501 294.3 310.201 291.9 308.701C284.1 301.201 276.9 292.801 270.9 283.801ZM264 209.401C254.7 209.101 245.1 209.701 235.8 211.201C224.4 213.601 214.8 221.101 209.1 231.301C204.6 242.401 205.2 255.001 211.2 265.801C218.4 274.801 230.7 277.801 241.2 273.601C253.5 265.801 261.9 252.901 264 238.201V209.401Z" fill="black"/>
<defs>
<linearGradient id="paint0_linear-429844" x1="240" y1="0" x2="240" y2="701.818" gradientUnits="userSpaceOnUse">
<stop stop-color="#08021E"/>
<stop offset="1" stop-color="#1F0777"/>
</linearGradient>
</defs>
</svg>

<svg width="480" height="480" viewBox="0 0 480 480" fill="none" xmlns="http://www.w3.org/2000/svg"><mask id="mask0-711235" maskUnits="userSpaceOnUse" x="0" y="0" width="480" height="480"><circle cx="240" cy="240" r="240" fill="url(#paint0_linear-429844)"/></mask><g mask="url(#mask0-711235)"><circle cx="240" cy="240" r="240" fill="#31D8A4"/><circle cx="240" cy="240" r="208" fill="#fff"/></g><circle cx="240" cy="240" r="184" fill="#fff"/><path d="M107.4 317.999c25.5 29.7 59.7 51 97.8 60.9 34.2 6.9 69.9 3.3 101.7-11.1 15.9-7.2 30.3-17.4 42.6-30 1.2-1.8.6-4.2-1.2-5.4-1.5-.6-3.6-.6-5.1 0-23.4 12-48.6 20.4-74.4 24.9-27.3 3-54.9 1.2-81.3-5.7-27-9-52.8-21.9-76.2-38.4-1.8-.6-3.6.3-3.9 2.1-.3 1.2-.3 2.1 0 2.7z" fill="#F39700"/><path d="M323.7 324.301c10.2-2.1 20.7-2.4 31.2-1.5h.3c3.3.9 5.4 4.2 4.8 7.8-2.1 10.2-5.4 20.1-9.6 29.4-.3.9.3 1.8 1.2 2.1.6.3.9 0 1.5-.3 12.6-9.9 19.8-24.9 19.8-41.1.3-4.2-2.4-7.8-6.6-8.4-15.3-2.7-30.9.6-44.1 9-.6.6-.9 1.5-.3 2.4.6.6 1.2.9 1.8.6z" fill="#F39700"/><path d="M270.9 283.801c-5.4 6-11.7 11.4-18.6 16.2-12.9 7.5-27.6 11.7-42.6 12-13.2-.3-26.1-4.8-36.6-12.6-17.7-16.2-24.6-40.8-17.4-63.9 6.6-20.1 21.9-36.3 41.7-43.8 21.6-6.6 44.1-9.9 66.9-9.9v-23.7c-1.5-10.8-10.2-19.2-21-20.4-6.9-.9-13.5 0-19.8 2.7-9 4.2-15.3 12.3-17.4 22.2-1.5 3-4.8 4.8-8.1 4.2l-32.4-3c-3-.9-5.1-3.3-5.4-6.6 2.4-16.2 10.8-30.3 23.1-40.5 16.5-12.6 36.9-19.5 57.9-19.2 19.2.3 38.1 6.3 54 17.7 13.2 11.1 20.4 27.6 19.5 44.7v81.9c.3 6.9 2.1 13.8 5.1 19.8l10.2 14.7c1.2 2.4 1.2 4.8 0 7.2l-30 25.5c-2.7 1.5-5.7 1.2-8.1-.3-7.8-7.5-15-15.9-21-24.9zm-6.9-74.4c-9.3-.3-18.9.3-28.2 1.8-11.4 2.4-21 9.9-26.7 20.1-4.5 11.1-3.9 23.7 2.1 34.5 7.2 9 19.5 12 30 7.8 12.3-7.8 20.7-20.7 22.8-35.4v-28.8z" fill="#000"/><defs><linearGradient id="paint0_linear-429844" x1="240" y1="0" x2="240" y2="701.818" gradientUnits="userSpaceOnUse"><stop stop-color="#08021E"/><stop offset="1" stop-color="#1F0777"/></linearGradient></defs></svg>
